X:1
T:Berceuse de Brahms
T:Berceuse de Brahms
T:J. Brahms
C:J. Brahms
L:1/8
M:3/4
K:G
V:1 treble nm="Piano" snm="Pia."
V:1
!mp![I:staff +1] (B,B, |[I:staff -1] D3[I:staff +1] B, B,2 | %2
[I:staff -1] D4)[I:staff +1] (B,[I:staff -1]D | G2 F3 E | E2 D2)[I:staff +1] (A,B, | %5
[I:staff -1] C2[I:staff +1] A,2 A,B, |[I:staff -1] C4)[I:staff +1] (A,[I:staff -1]C | FE D2 F2 | %8
 G4)[I:staff +1] (G,G, |[I:staff -1] G4 EC | D4)[I:staff +1] (B,G, |[I:staff -1] C2 D2 E2 | %12
[I:staff +1] B,[I:staff -1] D3)[I:staff +1] (G,G, |[I:staff -1] G4 EC | D4)[I:staff +1] (B,G, | %15
[I:staff -1] (3CDC[I:staff +1] B,2 A,2 | G,4) (B,B, |[I:staff -1] D3) (B B2 | d4) z2 |] %19

